places/64/folder-development.svg

<svg height="64" viewBox="0 0 16.933333 16.933333" width="64" xmlns="http://www.w3.org/2000/svg"><defs id="kuyenfoldercolor">
    <style type="text/css" id="current-color-scheme">
      .ColorScheme-Highlight {
        color:#03b2fe;
      }
      </style>
  </defs>
<g transform="translate(0 -280.06666)"><g transform="matrix(.26458333 0 0 .26458333 -1.587499 189.142599)"><path d="m12 345.65c-4 0-6 3-6 6v49c0 2.75269 2.2472973 5 5 5h54c2.752703 0 5-2.24731 5-5v-42c0-2.75271-2.247297-5-5-5h-27c-.305556 0-.669523-.21927-1.185547-.87109s-1.073964-1.63475-1.714844-2.66016-1.369755-2.1008-2.341797-2.96484c-.972039-.86404-2.241145-1.50391-3.757812-1.50391z" style="fill:currentColor"
class="ColorScheme-Highlight"/><path d="m12 346.64999h16.999999c5 0 6.000002 8 9.000002 8h26.999999c2.216 0 4 1.784 4 4v42c0 2.216-1.784 4-4 4h-54c-2.2159999 0-3.9999999-1.784-3.9999999-4l.0000003-48.97939c0-3.0206 1.9999996-5.02061 4.9999996-5.02061z" fill="#fff" fill-opacity=".1"/><path d="m12 345.64999c-3.9999966 0-6.0000006 3-6.0000006 6v49c0 2.75269 2.247299 5 4.9999996 5h54.000001c2.7527 0 5-2.24731 5-5v-42c0-2.75271-2.2473-5-5-5h-27c-.30556 0-.66952-.21928-1.18555-.8711-.51602-.65181-1.07396-1.63474-1.714841-2.66015-.64088-1.02541-1.36976-2.10081-2.3418-2.96485-.97204-.86403-2.24114-1.5039-3.757809-1.5039zm0 1h17c4.999989 0 6 8 9 8h27c2.215999 0 4 1.784 4 4v42c0 2.216-1.784001 4-4 4h-54.000001c-2.2159976 0-3.9999996-1.784-3.9999996-4v-48.97852c0-3.02059 2.000003-5.02148 5.0000006-5.02148z" fill-opacity=".2"/><path d="m38 353.65c-1.194444 0-2.080477.78073-2.751953 1.62891s-1.238536 1.86525-1.847656 2.83984-1.255245 1.8992-1.970703 2.53516c-.71546.63596-1.446355.99609-2.429688.99609h-18c-2.7527027 0-5 2.24729-5 5v34c0 2.75269 2.2472973 5 5 5h54c2.752703 0 5-2.24731 5-5v-42c0-2.75271-2.247297-5-5-5z" style="fill:currentColor"
class="ColorScheme-Highlight"/><path d="m37.999999 354.65c-2.999988 0-4.00002 8-9 8h-18c-2.2159913 0-4.0000001 1.78402-4.0000001 4v34c0 2.216 1.7840088 4 4.0000001 4h54c2.215988 0 3.999999-1.784 3.999999-4v-42c0-2.21598-1.784011-4-3.999999-4zm-11 18h22c.553995 0 1 .44604 1 1v19c0 .55396-.446005 1-1 1h-22c-.553994 0-1-.44604-1-1v-19c0-.55396.446006-1 1-1zm3 5v2h-2v2h2v2h-2v2h2v2h2v-2h2v2h2v-2h2v-2h-2v-2h2v-2h-2v-2h-2v2h-2v-2zm2 4h2v2h-2zm8 4v2h8v-2z" fill="#fff" fill-opacity=".3"/><path d="m37.999998 353.65001c-1.19444 0-2.08048.78073-2.75195 1.6289-.67148.84818-1.23854 1.86526-1.84766 2.83985s-1.25524 1.89919-1.9707 2.53515-1.44636.9961-2.42969.9961h-18c-2.7527005 0-5.0000005 2.24729-5.0000005 5v34c0 2.75269 2.2473 5 5.0000005 5h54c2.7527 0 5-2.24731 5-5v-42c0-2.75271-2.2473-5-5-5zm0 1h27c2.216 0 4 1.784 4 4v42c0 2.216-1.784 4-4 4h-54c-2.2160005 0-4.0000005-1.784-4.0000005-4v-34c0-2.216 1.784-4 4.0000005-4h18c4.99999 0 6-8 9-8z" fill-opacity=".2"/></g><path d="m5.5562499 287.73958c-.1465778 0-.2645833.11801-.2645833.26458v5.02708c0 .14657.1180055.26459.2645833.26459h5.8208331c.146578 0 .264583-.11802.264583-.26459v-5.02708c0-.14657-.118005-.26458-.264583-.26458zm.79375 1.32291h.5291666v.52917h.5291667v-.52917h.5291666v.52917h.5291667v.52917h-.5291667v.52916h.5291667v.52917h-.5291667v.52917h-.5291666v-.52917h-.5291667v.52917h-.5291666v-.52917h-.5291667v-.52917h.5291667v-.52916h-.5291667v-.52917h.5291667zm.5291666 1.05834v.52916h.5291667v-.52916zm2.1166667 1.05833h2.1166668v.52917h-2.1166668z" fill-opacity=".2" opacity=".99"/></g></svg>

<?xml version="1.0" encoding="UTF-8" standalone="no"?>
<!-- Created with Inkscape (http://www.inkscape.org/) -->

<svg
   width="64"
   height="64"
   viewBox="0 0 16.933333 16.933333"
   version="1.1"
   id="svg8"
   inkscape:version="1.2.1 (9c6d41e410, 2022-07-14)"
   sodipodi:docname="folder-script.svg"
   xml:space="preserve"
   xmlns:inkscape="http://www.inkscape.org/namespaces/inkscape"
   xmlns:sodipodi="http://sodipodi.sourceforge.net/DTD/sodipodi-0.dtd"
   xmlns:xlink="http://www.w3.org/1999/xlink"
   xmlns="http://www.w3.org/2000/svg"
   xmlns:svg="http://www.w3.org/2000/svg"
   xmlns:rdf="http://www.w3.org/1999/02/22-rdf-syntax-ns#"
   xmlns:cc="http://creativecommons.org/ns#"
   xmlns:dc="http://purl.org/dc/elements/1.1/"><defs
     id="defs2"><linearGradient
       inkscape:collect="always"
       xlink:href="#linearGradient10239"
       id="linearGradient940"
       x1="18"
       y1="361.64999"
       x2="18"
       y2="346.64999"
       gradientUnits="userSpaceOnUse" /><linearGradient
       id="linearGradient10239"
       inkscape:collect="always"><stop
         id="stop10235"
         offset="0"
         style="stop-color:#4ea0ee;stop-opacity:1;" /><stop
         id="stop10237"
         offset="1"
         style="stop-color:#2484e6;stop-opacity:1;" /></linearGradient></defs><sodipodi:namedview
     id="base"
     pagecolor="#ffffff"
     bordercolor="#666666"
     borderopacity="1.0"
     inkscape:pageopacity="0.0"
     inkscape:pageshadow="2"
     inkscape:zoom="31.678384"
     inkscape:cx="34.550374"
     inkscape:cy="37.170457"
     inkscape:document-units="px"
     inkscape:current-layer="layer1"
     showgrid="true"
     units="px"
     inkscape:showpageshadow="false"
     inkscape:snap-bbox="true"
     inkscape:bbox-paths="true"
     inkscape:bbox-nodes="true"
     inkscape:snap-bbox-edge-midpoints="true"
     inkscape:snap-bbox-midpoints="true"
     inkscape:object-paths="true"
     inkscape:snap-intersection-paths="true"
     inkscape:window-width="2160"
     inkscape:window-height="1335"
     inkscape:window-x="0"
     inkscape:window-y="0"
     inkscape:window-maximized="1"
     inkscape:pagecheckerboard="0"
     inkscape:deskcolor="#d1d1d1"><inkscape:grid
       type="xygrid"
       id="grid815" /></sodipodi:namedview><metadata
     id="metadata5"><rdf:RDF><cc:Work
         rdf:about=""><dc:format>image/svg+xml</dc:format><dc:type
           rdf:resource="http://purl.org/dc/dcmitype/StillImage" /><dc:title /></cc:Work></rdf:RDF></metadata><g
     inkscape:label="Capa 1"
     inkscape:groupmode="layer"
     id="layer1"
     transform="translate(0,-280.06666)"><g
       id="g87068"
       transform="matrix(0.26458333,0,0,0.26458333,-5.9999999e-8,213.74885)"><g
         transform="translate(-6,-93.00001)"
         id="g1529"><path
           inkscape:connector-curvature="0"
           id="path1475"
           d="m 12,345.65 c -4,0 -6,3 -6,6 v 49 c 0,2.75269 2.2472973,5 5,5 h 54 c 2.752703,0 5,-2.24731 5,-5 v -42 c 0,-2.75271 -2.247297,-5 -5,-5 H 38 c -0.305556,0 -0.669523,-0.21927 -1.185547,-0.87109 -0.516024,-0.65182 -1.073964,-1.63475 -1.714844,-2.66016 -0.64088,-1.02541 -1.369755,-2.1008 -2.341797,-2.96484 C 31.785773,346.28987 30.516667,345.65 29,345.65 Z"
           style="color:#000000;font-style:normal;font-variant:normal;font-weight:normal;font-stretch:normal;font-size:medium;line-height:normal;font-family:sans-serif;font-variant-ligatures:normal;font-variant-position:normal;font-variant-caps:normal;font-variant-numeric:normal;font-variant-alternates:normal;font-feature-settings:normal;text-indent:0;text-align:start;text-decoration:none;text-decoration-line:none;text-decoration-style:solid;text-decoration-color:#000000;letter-spacing:normal;word-spacing:normal;text-transform:none;writing-mode:lr-tb;direction:ltr;text-orientation:mixed;dominant-baseline:auto;baseline-shift:baseline;text-anchor:start;white-space:normal;shape-padding:0;clip-rule:nonzero;display:inline;overflow:visible;visibility:visible;opacity:1;isolation:auto;mix-blend-mode:normal;color-interpolation:sRGB;color-interpolation-filters:linearRGB;solid-color:#000000;solid-opacity:1;vector-effect:none;fill:#286bb2;fill-opacity:1;fill-rule:nonzero;stroke:none;stroke-width:2;stroke-linecap:round;stroke-linejoin:round;stroke-miterlimit:4;stroke-dasharray:none;stroke-dashoffset:0;stroke-opacity:1;color-rendering:auto;image-rendering:auto;shape-rendering:auto;text-rendering:auto;enable-background:accumulate"
           sodipodi:nodetypes="ssssssssssssss" /><path
           sodipodi:nodetypes="sccssssssss"
           inkscape:connector-curvature="0"
           id="rect1374-3"
           d="m 12,346.64999 h 16.999999 c 5,0 6.000002,8 9.000002,8 H 65 c 2.216,0 4,1.784 4,4 v 42 c 0,2.216 -1.784,4 -4,4 H 11 c -2.2159999,0 -3.9999999,-1.784 -3.9999999,-4 l 3e-7,-48.97939 C 7.0000004,348.65 9,346.64999 12,346.64999 Z"
           style="opacity:1;vector-effect:none;fill:url(#linearGradient940);fill-opacity:1;stroke:none;stroke-width:2;stroke-linecap:round;stroke-linejoin:round;stroke-miterlimit:4;stroke-dasharray:none;stroke-dashoffset:0;stroke-opacity:1" /><path
           inkscape:connector-curvature="0"
           id="path1453"
           d="m 38,353.65 c -1.194444,0 -2.080477,0.78073 -2.751953,1.62891 -0.671476,0.84818 -1.238536,1.86525 -1.847656,2.83984 -0.60912,0.97459 -1.255245,1.8992 -1.970703,2.53516 C 30.714228,361.28987 29.983333,361.65 29,361.65 H 11 c -2.7527027,0 -5,2.24729 -5,5 v 34 c 0,2.75269 2.2472973,5 5,5 h 54 c 2.752703,0 5,-2.24731 5,-5 v -42 c 0,-2.75271 -2.247297,-5 -5,-5 z"
           style="color:#000000;font-style:normal;font-variant:normal;font-weight:normal;font-stretch:normal;font-size:medium;line-height:normal;font-family:sans-serif;font-variant-ligatures:normal;font-variant-position:normal;font-variant-caps:normal;font-variant-numeric:normal;font-variant-alternates:normal;font-feature-settings:normal;text-indent:0;text-align:start;text-decoration:none;text-decoration-line:none;text-decoration-style:solid;text-decoration-color:#000000;letter-spacing:normal;word-spacing:normal;text-transform:none;writing-mode:lr-tb;direction:ltr;text-orientation:mixed;dominant-baseline:auto;baseline-shift:baseline;text-anchor:start;white-space:normal;shape-padding:0;clip-rule:nonzero;display:inline;overflow:visible;visibility:visible;opacity:1;isolation:auto;mix-blend-mode:normal;color-interpolation:sRGB;color-interpolation-filters:linearRGB;solid-color:#000000;solid-opacity:1;vector-effect:none;fill:#3182d9;fill-opacity:1;fill-rule:nonzero;stroke:none;stroke-width:2;stroke-linecap:round;stroke-linejoin:round;stroke-miterlimit:4;stroke-dasharray:none;stroke-dashoffset:0;stroke-opacity:1;color-rendering:auto;image-rendering:auto;shape-rendering:auto;text-rendering:auto;enable-background:accumulate" /><path
           sodipodi:nodetypes="sccssssssss"
           inkscape:connector-curvature="0"
           id="rect1374-4-4"
           d="m 11,362.64999 h 17.999999 c 5,0 6.000002,-8 9.000002,-8 H 65 c 2.216,0 4,1.784 4,4 v 42 c 0,2.216 -1.784,4 -4,4 H 11 c -2.2159999,0 -3.9999996,-1.784 -3.9999996,-4 v -34 c 0,-2.216 1.7839997,-4 3.9999996,-4 z"
           style="opacity:1;vector-effect:none;fill:#50c1f9;fill-opacity:1;stroke:none;stroke-width:2;stroke-linecap:round;stroke-linejoin:round;stroke-miterlimit:4;stroke-dasharray:none;stroke-dashoffset:0;stroke-opacity:1" /></g></g><path
       id="rect907"
       style="opacity:0.99;fill:#ddf3ff;fill-opacity:1;stroke:none;stroke-width:0.529167;stroke-linecap:round;stroke-linejoin:round;stroke-miterlimit:4;stroke-dasharray:none;stroke-dashoffset:0;stroke-opacity:1"
       d="M 5.5562499 287.73958 C 5.4096721 287.73958 5.2916666 287.85759 5.2916666 288.00416 L 5.2916666 293.03124 C 5.2916666 293.17781 5.4096721 293.29583 5.5562499 293.29583 L 11.377083 293.29583 C 11.523661 293.29583 11.641666 293.17781 11.641666 293.03124 L 11.641666 288.00416 C 11.641666 287.85759 11.523661 287.73958 11.377083 287.73958 L 5.5562499 287.73958 z M 6.3499999 289.06249 L 6.8791665 289.06249 L 6.8791665 289.59166 L 7.4083332 289.59166 L 7.4083332 289.06249 L 7.9374998 289.06249 L 7.9374998 289.59166 L 8.4666665 289.59166 L 8.4666665 290.12083 L 7.9374998 290.12083 L 7.9374998 290.64999 L 8.4666665 290.64999 L 8.4666665 291.17916 L 7.9374998 291.17916 L 7.9374998 291.70833 L 7.4083332 291.70833 L 7.4083332 291.17916 L 6.8791665 291.17916 L 6.8791665 291.70833 L 6.3499999 291.70833 L 6.3499999 291.17916 L 5.8208332 291.17916 L 5.8208332 290.64999 L 6.3499999 290.64999 L 6.3499999 290.12083 L 5.8208332 290.12083 L 5.8208332 289.59166 L 6.3499999 289.59166 L 6.3499999 289.06249 z M 6.8791665 290.12083 L 6.8791665 290.64999 L 7.4083332 290.64999 L 7.4083332 290.12083 L 6.8791665 290.12083 z M 8.9958332 291.17916 L 11.1125 291.17916 L 11.1125 291.70833 L 8.9958332 291.70833 L 8.9958332 291.17916 z " /></g></svg>
